src/images/icons-flexible.svg

<svg id="flexible" xmlns="http://www.w3.org/2000/svg" viewBox="0 0 55 60"><title>icons-flexible</title><rect width="55" height="60" style="fill:none"/><path d="M6.6,18.2L6.5,44.6a6.274,6.274,0,0,0,6.3,6.3L42.1,51a6.274,6.274,0,0,0,6.3-6.3l0.1-26.5H6.6Z" style="fill:#5e5e5e"/><path d="M42.2,9.1L12.9,9a6.274,6.274,0,0,0-6.3,6.3v3H48.5V15.5A6.3,6.3,0,0,0,42.2,9.1Z" style="fill:#bcbcbc"/><path d="M18.6,27l-5.1,3.1V28.6l3.6-2.1-3.6-1.9V22.9l5.1,3.2V27Z" style="fill:#f1f2f2"/><path d="M24.8,30.1v1H19.7v-1h5.1Z" style="fill:#f1f2f2"/><g style="opacity:0.20000000298023224"><path d="M12.9,9v3l29.3,0.1a2.9,2.9,0,0,1,2.3,1,3.255,3.255,0,0,1,1,2.3v3.9h0v3L45.4,44.7A3.329,3.329,0,0,1,42.1,48l-29.3-.1a2.9,2.9,0,0,1-2.3-1,3.255,3.255,0,0,1-1-2.3L9.6,22.9h0V15.3A3.329,3.329,0,0,1,12.9,12V9m0,0a6.274,6.274,0,0,0-6.3,6.3v4.6h0L6.5,44.6a6.274,6.274,0,0,0,6.3,6.3L42.1,51h0a6.274,6.274,0,0,0,6.3-6.3l0.1-22.4h0V15.4a6.274,6.274,0,0,0-6.3-6.3L12.9,9h0Z"/></g></svg>

<?xml version="1.0" encoding="utf-8"?>
<!-- Generator: Adobe Illustrator 19.2.1, SVG Export Plug-In . SVG Version: 6.00 Build 0)  -->
<!DOCTYPE svg PUBLIC "-//W3C//DTD SVG 1.1//EN" "http://www.w3.org/Graphics/SVG/1.1/DTD/svg11.dtd">
<svg version="1.1" id="flexible" xmlns="http://www.w3.org/2000/svg" xmlns:xlink="http://www.w3.org/1999/xlink" x="0px" y="0px"
	 viewBox="0 0 55 60" style="enable-background:new 0 0 55 60;" xml:space="preserve">
<style type="text/css">
	.st0{fill:#5E5E5E;}
	.st1{fill:#BCBCBC;}
	.st2{fill:#F1F2F2;}
	.st3{opacity:0.2;}
</style>
<g>
	<path class="st0" d="M6.6,18.2L6.5,44.6c0,3.5,2.8,6.3,6.3,6.3L42.1,51c3.5,0,6.3-2.8,6.3-6.3l0.1-26.5H6.6z"/>
</g>
<g>
	<path class="st1" d="M42.2,9.1L12.9,9c-3.5,0-6.3,2.8-6.3,6.3l0,3h41.9l0-2.8C48.5,11.9,45.7,9.1,42.2,9.1z"/>
</g>
<title>icons-flexible</title>
<path class="st2" d="M18.6,27l-5.1,3.1v-1.5l3.6-2.1l-3.6-1.9v-1.7l5.1,3.2V27z"/>
<path class="st2" d="M24.8,30.1v1h-5.1v-1H24.8z"/>
<g class="st3">
	<path d="M12.9,9l0,3l29.3,0.1c0.9,0,1.7,0.3,2.3,1c0.6,0.6,1,1.4,1,2.3l0,3.9h0l0,3l-0.1,22.4c0,1.8-1.5,3.3-3.3,3.3l-29.3-0.1
		c-0.9,0-1.7-0.3-2.3-1c-0.6-0.6-1-1.4-1-2.3l0.1-21.7h0l0-3l0-4.6c0-1.8,1.5-3.3,3.3-3.3V9 M12.9,9c-3.5,0-6.3,2.8-6.3,6.3l0,4.6h0
		L6.5,44.6c0,3.5,2.8,6.3,6.3,6.3L42.1,51c0,0,0,0,0,0c3.5,0,6.3-2.8,6.3-6.3l0.1-22.4h0l0-6.9c0-3.5-2.8-6.3-6.3-6.3L12.9,9
		C12.9,9,12.9,9,12.9,9L12.9,9z"/>
</g>
</svg>
